X: 1626
T: Rûy-i Irâk Sazsemâîsi
C: Kâni Karaca
O: Turkey
F: http://compmusic.upf.edu/node/140
N: ruyiirak--sazsemaisi--aksaksemai----kani_karaca
N: makam= ruyiirak
N: form= sazsemaisi
N: usul= aksaksemai = 10/8
M: 10/8
L: 1/16
K: C _1/4B _1/4e ^f 
Q: 1/4=114
%%MIDI tuningsystem comma53
^c2d2 d2=f3/2e/ dcB3/2^A/ Bcd6  | \
w:  1. HANE  | 
dcB^A B2d/c/d/e/ dcB3/2A/ GAB6  | 
w:   | 
c2B2 A2AB AGAG F^EF6  | d4 B2^cd e=fed dcd6  | 
w:   |   | 
d2g2 feag feed d^cd6  | d^cde =fgfe dcdc B^AB6  | 
w:  TESLİM  |   | 
dcB^A B2B2 ABc2 B=AA4GF  | d2c2 B2AB cBAG GFF6  | 
w:   |   | 
G2A2 A2AB AGAG F^EF6  | d2c2 B2c3/2B/ cd=ed cBA6  | 
w:  2. HANE  |   | 
c2B2 A2AB AGAG F^EF6  | d4 B2^cd e=fed dcd6  | 
w:   |   | 
d2g2 feag feed d^cd6  | d^cde =fgfe dcdc B^AB6  | 
w:  TESLİM  |   | 
dcB^A B2B2 ABc2 B=AA4GF  | d2c2 B2AB cBAG GFF6  | 
w:   |   | 
d2f2 d2f3/2e/ fgaf gef6  | efg2 fee2 d^ced c=BA6  | 
w:  3. HANE  |   | 
d4 A2d^c def3/2e/ fga4gf  | f4 d2e2 def2 edd6  | 
w:   |   | 
d2g2 feag feed d^cd6  | d^cde =fgfe dcdc B^AB6  | 
w:  TESLİM  |   | 
dcB^A B2B2 ABc2 B=AA4GF  | d2c2 B2AB cBAG GFF6  | 
w:   |   | 
z24  | d2e2d2^c2B2^A2B2c2d8  | d2^c2d2e2=f2e2d2c2d8  | \
w:  |  4. HANE  |   | 
d2g2f2e2d2e2=f2e2d2^c2B2^A2  | 
w:   | 
B2c2d2e2d2c2B2^A2B8  | c2B2c2e2d2c2B2c2A8  | \
w:   |   | 
A2B2c2d2c2B2A2G2F8  | 
w:   | 
d2c2d2e2c2d2B2c2A2B2A2G2  | F2G2A2B2A2G2F2^E2F8  | 
w:   |   | 
z20  | d2g2 feag feed d^cd6  | d^cde =fgfe dcdc B^AB6  | 
w:  |  TESLİM  |   | 
dcB^A B2B2 ABc2 B=AA4GF  | d2c2 B2AB cBAG GFF6  | 
w:   |   | 
|


